X: 248
T: Ben Ezelden Dîdenin Meclûbuyum
C: Mısırlı Udî İbrahim Efendi
O: Turkey
F: http://compmusic.upf.edu/node/140
N: huseyni--sarki--agiraksak--ben_ezelden--misirli_udi_ibrahim_efendi
N: makam= huseyni
N: form= sarki
N: usul= agiraksak = 9/4
M: 9/4
L: 1/16
K: C _2/4B ^3/4f  
Q: 1/4=69
%%MIDI tuningsystem comma53
baga g2c'2 b2c'b a2ba g2ag f2gf e2=fe d2ef edc2  | 
w:  ARANAĞME  | 
dcBc d2ef ag=fe dcBd cBAc BAGB A4 de^3/4fg a4  | 
w:   | 
baga g2c'2 b2c'b a2ba g2ag f2gf e2=fe d2ef edc2  | 
w:  ARANAĞME  | 
dcBc d2ef ag=fe dcBd cBAc BAGB A8 z4  | 
w:   | 
z8 z2A4(3gfg e8 (3gfge6 (3gfge2  | \
w:  Ben  e *  *  zel den   | 
e2d2 d2c2 z2d4a2 g2=f2 e2d2 e2^3/4f2 g2a2 g2^1/4f2  | 
w:  *  *  *  *  dî de nin  *  *  *  mec  | 
e3d edc2 z2de d2e2 e8 ed2B dc2B BcBA  | 
w:  *  *  *  *  *  lû *  *  bu yum  bil  | 
A8 z2e2 f2g2 a2{b}ag gffe e6d2 edcd  | \
w:  *  mez  *  *  *  *  *  *  *  *  mi *  sin   SAZ  | 
e3=f ede2 z2g2 ^3/4f2g2 e6d2 g8 gagf  | 
w:  *  *  *  *  *  Has *  re tin *  le   | 
edef g4 z2ga g2f2 g2a2 gffe e6d2 a4  | \
w:  *  *  *  *  *  yaş  *  *  dö ken  *  *  *  *  *  çeş  | 
g=fed cBBA z2ed c2e2 d8 a2g2 f2e2 d2c2  | 
w:  *  *  *  *  *  *  *  *  mâ *  *  nı mı  sil  | 
d2ed c2d2 z2cB A2B2 c2de cBBA A6e=f edcd  | 
w:  *  *  *  *  *  mez  *  *  *  *  *  *  *  *  mi *  sin   SAZ  | 
e3=f ede2 z2g2 ^3/4f2g2 e6d2 g8 gagf  | \
w:  *  *  *  *  *  Has *  re tin *  le   | 
edef g4 z2ga g2f2 g2a2 gffe e6d2 a4  | 
w:  *  *  *  *  *  yaş  *  *  dö ken  *  *  *  *  *  çeş  | 
g=fed cBBA z2ed c2e2 d8 a2g2 f2e2 d2c2  | \
w:  *  *  *  *  *  *  *  *  mâ *  *  nı mı  sil  | 
d2ed c2d2 z2cB A2B2 c2de cBBA A6ag gff^3/4e  | 
w:  *  *  *  *  *  mez  *  *  *  *  *  *  *  *  mi *  sin   SAZ  | 
f8 z2a2 g2a2 a/g/f/^3/4e/f4z2 b2ag c'2ba a2gf  | \
w:  *  Gül *  mü yor  *  *  *  *  şâd   | 
g2a2 g2f2 z2ag f2g2 a8 g2fg e6a2  | 
w:  *  *  *  *  ol *  *  mu yor  sen  | 
g2=f2 e2d2 c2de d2e2 e8 ed2B dc2B BcBA  | \
w:  *  *  *  *  *  siz  *  *  ha ya tım   | 
A8 z2e2 f2g2 a2{b}ag gffe e6d2 edcd  | 
w:  *  ney *  *  *  *  *  *  *  *  le *  yim   SAZ  | 
e3=f ede2 z2g2 ^3/4f2g2 e6d2 g8 gagf  | \
w:  *  *  *  *  *  Has *  re tin *  le   | 
edef g4 z2ga g2f2 g2a2 gffe e6d2 a4  | 
w:  *  *  *  *  *  yaş  *  *  dö ken  *  *  *  *  *  çeş  | 
g=fed cBBA z2ed c2e2 d8 a2g2 f2e2 d2c2  | \
w:  *  *  *  *  *  *  *  *  mâ *  *  nı mı  sil  | 
d2ed c2d2 z2cB A2B2 c2de cBBA A6e=f edcd  | 
w:  *  *  *  *  *  mez  *  *  *  *  *  *  *  *  mi *  sin   SAZ  | 
e3=f ede2 z2g2 ^3/4f2g2 e6d2 g8 gagf  | \
w:  *  *  *  *  *  Has *  re tin *  le   | 
edef g4 z2ga g2f2 g2a2 gffe e6d2 a4  | 
w:  *  *  *  *  *  yaş  *  *  dö ken  *  *  *  *  *  çeş  | 
g=fed cBBA z2ed c2e2 d8 a2g2 f2e2 d2c2  | \
w:  *  *  *  *  *  *  *  *  mâ *  *  nı mı  sil  | 
d2ed c2d2 z2cB A2B2 c2de cBBA A6|
w:  *  *  *  *  *  mez  *  *  *  *  *  *  *  *  mi *  sin    | 


